( pcb2gcode 2.0.0 )
( Software-independent Gcode )

G94 ( Millimeters per minute feed rate. )
G21 ( Units == Millimeters. )

G90 ( Absolute coordinates. )
G00 S6000 ( RPM spindle speed. )
G64 P0.01016 ( set maximum deviation from commanded toolpath )
G01 F300.00000 ( Feedrate. )


G00 Z30.00000 (Retract to tool change height)
T0
M5      (Spindle stop.)
G04 P7.00000 (Wait for spindle to stop)
(MSG, Change tool bit to cutter diameter 1.05000mm)
M6      (Tool change.)
M0      (Temporary machine stop.)
M3 ( Spindle on clockwise. )
G04 P7.00000 (Wait for spindle to get up to speed)
G04 P0 ( dwell for no time -- G64 should not smooth over this point )
G00 Z4.00000 ( retract )

G00 X-12.77496 Y-20.99998 ( rapid move to begin. )
G01 Z-0.90000 F150.00000 ( plunge. )
G04 P0 ( dwell for no time -- G64 should not smooth over this point )
G01 F300.00000
G01 X-12.77496 Y18.49999
G01 X-12.73503 Y18.70090
G01 X-12.68651 Y18.79166
G01 X-12.54166 Y18.93651
G01 X-12.45090 Y18.98503
G01 X-12.24999 Y19.02498
G01 X6.75000 Y19.02498
G01 X6.95089 Y18.98503
G01 X7.04167 Y18.93651
G01 X7.18650 Y18.79166
G01 X7.26491 Y18.60240
G01 X7.27499 Y18.49999
G01 X7.27499 Y-20.99998
G01 X7.23501 Y-21.20090
G01 X7.12122 Y-21.37123
G01 X7.04167 Y-21.43651
G01 X6.85241 Y-21.51489
G01 X6.75000 Y-21.52498
G01 X-12.24999 Y-21.52498
G01 X-12.45090 Y-21.48502
G01 X-12.62121 Y-21.37123
G01 X-12.73503 Y-21.20090
G01 X-12.77496 Y-20.99998
G01 Z-1.80000 F150.00000 ( plunge. )
G04 P0 ( dwell for no time -- G64 should not smooth over this point )
G01 F300.00000
G01 X-12.77496 Y18.49999
G01 X-12.73503 Y18.70090
G01 X-12.68651 Y18.79166
G01 X-12.54166 Y18.93651
G01 X-12.45090 Y18.98503
G01 X-12.24999 Y19.02498
G01 X6.75000 Y19.02498
G01 X6.95089 Y18.98503
G01 X7.04167 Y18.93651
G01 X7.18650 Y18.79166
G01 X7.26491 Y18.60240
G01 X7.27499 Y18.49999
G01 X7.27499 Y-20.99998
G01 X7.23501 Y-21.20090
G01 X7.12122 Y-21.37123
G01 X7.04167 Y-21.43651
G01 X6.85241 Y-21.51489
G01 X6.75000 Y-21.52498
G01 X-12.24999 Y-21.52498
G01 X-12.45090 Y-21.48502
G01 X-12.62121 Y-21.37123
G01 X-12.73503 Y-21.20090
G01 X-12.77496 Y-20.99998
G04 P0 ( dwell for no time -- G64 should not smooth over this point )
G00 Z4.00000 ( retract )

G00 X10.22500 Y-20.99998 ( rapid move to begin. )
G01 Z-0.90000 F150.00000 ( plunge. )
G04 P0 ( dwell for no time -- G64 should not smooth over this point )
G01 F300.00000
G01 X10.22500 Y18.49999
G01 X10.26495 Y18.70090
G01 X10.37874 Y18.87121
G01 X10.45832 Y18.93651
G01 X10.64755 Y19.01490
G01 X10.74999 Y19.02498
G01 X29.74998 Y19.02498
G01 X29.95089 Y18.98503
G01 X30.04167 Y18.93651
G01 X30.18650 Y18.79166
G01 X30.23502 Y18.70090
G01 X30.27500 Y18.49999
G01 X30.27500 Y-20.99998
G01 X30.23502 Y-21.20090
G01 X30.12122 Y-21.37123
G01 X30.04167 Y-21.43651
G01 X29.85242 Y-21.51489
G01 X29.74998 Y-21.52498
G01 X10.74999 Y-21.52498
G01 X10.54908 Y-21.48502
G01 X10.37874 Y-21.37123
G01 X10.26495 Y-21.20090
G01 X10.22500 Y-20.99998
G01 Z-1.80000 F150.00000 ( plunge. )
G04 P0 ( dwell for no time -- G64 should not smooth over this point )
G01 F300.00000
G01 X10.22500 Y18.49999
G01 X10.26495 Y18.70090
G01 X10.37874 Y18.87121
G01 X10.45832 Y18.93651
G01 X10.64755 Y19.01490
G01 X10.74999 Y19.02498
G01 X29.74998 Y19.02498
G01 X29.95089 Y18.98503
G01 X30.04167 Y18.93651
G01 X30.18650 Y18.79166
G01 X30.23502 Y18.70090
G01 X30.27500 Y18.49999
G01 X30.27500 Y-20.99998
G01 X30.23502 Y-21.20090
G01 X30.12122 Y-21.37123
G01 X30.04167 Y-21.43651
G01 X29.85242 Y-21.51489
G01 X29.74998 Y-21.52498
G01 X10.74999 Y-21.52498
G01 X10.54908 Y-21.48502
G01 X10.37874 Y-21.37123
G01 X10.26495 Y-21.20090
G01 X10.22500 Y-20.99998
G04 P0 ( dwell for no time -- G64 should not smooth over this point )
G00 Z4.00000 ( retract )

G00 X33.22498 Y-20.99998 ( rapid move to begin. )
G01 Z-0.90000 F150.00000 ( plunge. )
G04 P0 ( dwell for no time -- G64 should not smooth over this point )
G01 F300.00000
G01 X33.22498 Y18.49999
G01 X33.26496 Y18.70090
G01 X33.37875 Y18.87121
G01 X33.45830 Y18.93651
G01 X33.64756 Y19.01490
G01 X33.75000 Y19.02498
G01 X52.74998 Y19.02498
G01 X52.95087 Y18.98503
G01 X53.12123 Y18.87121
G01 X53.18651 Y18.79166
G01 X53.23502 Y18.70090
G01 X53.27498 Y18.49999
G01 X53.27498 Y-20.99998
G01 X53.23502 Y-21.20090
G01 X53.12123 Y-21.37123
G01 X53.04165 Y-21.43651
G01 X52.85242 Y-21.51489
G01 X52.74998 Y-21.52498
G01 X33.75000 Y-21.52498
G01 X33.54908 Y-21.48502
G01 X33.37875 Y-21.37123
G01 X33.26496 Y-21.20090
G01 X33.22498 Y-20.99998
G01 Z-1.80000 F150.00000 ( plunge. )
G04 P0 ( dwell for no time -- G64 should not smooth over this point )
G01 F300.00000
G01 X33.22498 Y18.49999
G01 X33.26496 Y18.70090
G01 X33.37875 Y18.87121
G01 X33.45830 Y18.93651
G01 X33.64756 Y19.01490
G01 X33.75000 Y19.02498
G01 X52.74998 Y19.02498
G01 X52.95087 Y18.98503
G01 X53.12123 Y18.87121
G01 X53.18651 Y18.79166
G01 X53.23502 Y18.70090
G01 X53.27498 Y18.49999
G01 X53.27498 Y-20.99998
G01 X53.23502 Y-21.20090
G01 X53.12123 Y-21.37123
G01 X53.04165 Y-21.43651
G01 X52.85242 Y-21.51489
G01 X52.74998 Y-21.52498
G01 X33.75000 Y-21.52498
G01 X33.54908 Y-21.48502
G01 X33.37875 Y-21.37123
G01 X33.26496 Y-21.20090
G01 X33.22498 Y-20.99998
G04 P0 ( dwell for no time -- G64 should not smooth over this point )
G00 Z4.00000 ( retract )

G00 X29.22499 Y20.99998 ( rapid move to begin. )
G01 Z-0.90000 F150.00000 ( plunge. )
G04 P0 ( dwell for no time -- G64 should not smooth over this point )
G01 F300.00000
G01 X29.22499 Y40.00000
G01 X29.23507 Y40.10241
G01 X29.31345 Y40.29166
G01 X29.45831 Y40.43652
G01 X29.64757 Y40.51490
G01 X29.74998 Y40.52499
G01 X53.74998 Y40.52499
G01 X53.95090 Y40.48503
G01 X54.12123 Y40.37122
G01 X54.18651 Y40.29166
G01 X54.23502 Y40.20088
G01 X54.27500 Y40.00000
G01 X54.27500 Y20.99998
G01 X54.23502 Y20.79907
G01 X54.12123 Y20.62876
G01 X54.04165 Y20.56346
G01 X53.85242 Y20.48507
G01 X53.74998 Y20.47499
G01 X29.74998 Y20.47499
G01 X29.54909 Y20.51495
G01 X29.37876 Y20.62876
G01 X29.26494 Y20.79907
G01 X29.22499 Y20.99998
G01 Z-1.80000 F150.00000 ( plunge. )
G04 P0 ( dwell for no time -- G64 should not smooth over this point )
G01 F300.00000
G01 X29.22499 Y40.00000
G01 X29.23507 Y40.10241
G01 X29.31345 Y40.29166
G01 X29.45831 Y40.43652
G01 X29.64757 Y40.51490
G01 X29.74998 Y40.52499
G01 X53.74998 Y40.52499
G01 X53.95090 Y40.48503
G01 X54.12123 Y40.37122
G01 X54.18651 Y40.29166
G01 X54.23502 Y40.20088
G01 X54.27500 Y40.00000
G01 X54.27500 Y20.99998
G01 X54.23502 Y20.79907
G01 X54.12123 Y20.62876
G01 X54.04165 Y20.56346
G01 X53.85242 Y20.48507
G01 X53.74998 Y20.47499
G01 X29.74998 Y20.47499
G01 X29.54909 Y20.51495
G01 X29.37876 Y20.62876
G01 X29.26494 Y20.79907
G01 X29.22499 Y20.99998
G04 P0 ( dwell for no time -- G64 should not smooth over this point )
G00 Z4.00000 ( retract )

G00 X-12.57798 Y21.07400 ( rapid move to begin. )
G01 Z-0.90000 F150.00000 ( plunge. )
G04 P0 ( dwell for no time -- G64 should not smooth over this point )
G01 F300.00000
G01 X-12.57798 Y40.07399
G01 X-12.53802 Y40.27490
G01 X-12.48951 Y40.36565
G01 X-12.34465 Y40.51051
G01 X-12.25390 Y40.55902
G01 X-12.05299 Y40.59898
G01 X27.44699 Y40.59898
G01 X27.64790 Y40.55902
G01 X27.73865 Y40.51051
G01 X27.88351 Y40.36565
G01 X27.93202 Y40.27490
G01 X27.97198 Y40.07399
G01 X27.97198 Y21.07400
G01 X27.96189 Y20.97156
G01 X27.88351 Y20.78231
G01 X27.81821 Y20.70275
G01 X27.64790 Y20.58896
G01 X27.44699 Y20.54898
G01 X-12.05299 Y20.54898
G01 X-12.25390 Y20.58896
G01 X-12.42421 Y20.70275
G01 X-12.53802 Y20.87308
G01 X-12.57798 Y21.07400
G01 Z-1.80000 F150.00000 ( plunge. )
G04 P0 ( dwell for no time -- G64 should not smooth over this point )
G01 F300.00000
G01 X-12.57798 Y40.07399
G01 X-12.53802 Y40.27490
G01 X-12.48951 Y40.36565
G01 X-12.34465 Y40.51051
G01 X-12.25390 Y40.55902
G01 X-12.05299 Y40.59898
G01 X27.44699 Y40.59898
G01 X27.64790 Y40.55902
G01 X27.73865 Y40.51051
G01 X27.88351 Y40.36565
G01 X27.93202 Y40.27490
G01 X27.97198 Y40.07399
G01 X27.97198 Y21.07400
G01 X27.96189 Y20.97156
G01 X27.88351 Y20.78231
G01 X27.81821 Y20.70275
G01 X27.64790 Y20.58896
G01 X27.44699 Y20.54898
G01 X-12.05299 Y20.54898
G01 X-12.25390 Y20.58896
G01 X-12.42421 Y20.70275
G01 X-12.53802 Y20.87308
G01 X-12.57798 Y21.07400

G04 P0 ( dwell for no time -- G64 should not smooth over this point )
G00 Z30.000 ( retract )

M5 ( Spindle off. )
G04 P7.000000
M9 ( Coolant off. )
M2 ( Program end. )

